rospo-icon-theme-classic-common/symbolic/status/security-low-symbolic.svg

<svg height="16" width="16" xmlns="http://www.w3.org/2000/svg"><path d="m8 0-6 2v7c0 2.07 1.5795 3.489 2.9395 4.439s3.0605 1.561 3.0605 1.561 1.7005-.611 3.061-1.561c1.36-.96 2.939-2.399 2.939-4.439v-7zm-2.25 3.5098 2.25 2.25 2.25-2.25 1.24 1.2402-2.2498 2.25 2.2498 2.25-1.24 1.24-2.25-2.2498-2.25 2.2498-1.2402-1.24 2.25-2.25-2.25-2.25z" fill="#5294e2"/></svg>

<svg xmlns="http://www.w3.org/2000/svg" width="16" height="16" version="1.1">
 <path style="fill:#5294e2" class="warning" d="M 8,0 2,2 V 9 C 2,11.07 3.5795,12.489 4.9395,13.439 6.2995,14.389 8,15 8,15 8,15 9.7005,14.389 11.061,13.439 12.421,12.479 14,11.04 14,9 V 2 Z M 5.75,3.5098 8,5.7598 10.25,3.5098 11.49,4.75 9.2402,7 11.49,9.25 10.25,10.49 8,8.2402 5.75,10.49 4.5098,9.25 6.7598,7 4.5098,4.75 Z"/>
</svg>
